client/public/svg/CardHomePage/cardHomepageBottom.svg

<svg width="626" height="12" viewBox="0 0 626 12" fill="none" xmlns="http://www.w3.org/2000/svg">
<g clip-path="url(#clip0_985_929)">
<path d="M15.5 7L1.5 0H622L612.5 8.5L592 10L553 7.5H511.5L449 9L308 6L190 8.5L112.5 7H52.5H15.5Z" fill="#F9F7F2"/>
<path d="M625.84 0H619.39C617.881 2.02612 615.92 3.67229 613.664 4.80762C611.407 5.94295 608.916 6.53613 606.39 6.54C600.25 6.64 594.12 7.26 587.98 7.64V6.48C565.55 5.76 543.12 4.48 520.79 4.48C504.04 4.48 487.29 6.59 470.53 6.72C455.27 6.84 439.99 5.54 424.72 4.91C415.42 4.53 406.13 4 396.83 3.91C364.89 3.62 332.89 3.32 300.89 3.41C288.94 3.48 277 5 265.05 5.13C252.45 5.33 239.83 4.44 227.22 4.61C209.63 4.85 192 6 174.45 6.07C161.16 6.07 147.87 4.81 134.58 4.59C117.81 4.31 101.04 4.67 84.27 4.49C61.15 4.24 38 3.78 14.9 3.31C11.66 3.24 9.41 2.08 8 0H0C0.51 5.13 2.25 6.82 7.59 7.45C10.36 7.77 13 9 15.8 9.31C19.7198 9.7097 23.6617 9.85001 27.6 9.73C33.38 9.57 39.15 8.84 44.94 8.79C57.94 8.68 71.06 8.55 84.06 8.97C93.06 9.26 102.06 10.46 111.06 11.26H243.06C243.955 10.8796 244.891 10.6044 245.85 10.44C264.98 9.34 284.11 8.37 303.24 7.21C313.8 6.57 323.97 8.57 334.06 11.29H514.06H514.15H514.05C516.49 10.47 518.91 9.01 521.38 8.93C532.26 8.54 543.17 8.2 554.04 8.55C560.04 8.75 566.04 10.33 572.04 11.29H571.88C571.937 11.2844 571.993 11.2844 572.05 11.29H615C619.866 8.9697 623.719 4.95606 625.84 0Z" fill="black"/>
</g>
<defs>
<clipPath id="clip0_985_929">
<rect width="625.84" height="11.29" fill="white"/>
</clipPath>
</defs>
</svg>

<svg xmlns="http://www.w3.org/2000/svg" viewBox="0 0 625.84 11.29"><g id="Calque_2" data-name="Calque 2"><g id="Calque_1-2" data-name="Calque 1"><path d="M625.84,0h-6.45a16.24,16.24,0,0,1-13,6.54c-6.14.1-12.27.72-18.41,1.1V6.48c-22.43-.72-44.86-2-67.19-2-16.75,0-33.5,2.11-50.26,2.24-15.26.12-30.54-1.18-45.81-1.81-9.3-.38-18.59-.91-27.89-1-31.94-.29-63.94-.59-95.94-.5C288.94,3.48,277,5,265.05,5.13c-12.6.2-25.22-.69-37.83-.52C209.63,4.85,192,6,174.45,6.07c-13.29,0-26.58-1.26-39.87-1.48-16.77-.28-33.54.08-50.31-.1C61.15,4.24,38,3.78,14.9,3.31,11.66,3.24,9.41,2.08,8,0H0C.51,5.13,2.25,6.82,7.59,7.45,10.36,7.77,13,9,15.8,9.31a89.46,89.46,0,0,0,11.8.42c5.78-.16,11.55-.89,17.34-.94,13-.11,26.12-.24,39.12.18,9,.29,18,1.49,27,2.29h132a12.56,12.56,0,0,1,2.79-.82c19.13-1.1,38.26-2.07,57.39-3.23,10.56-.64,20.73,1.36,30.82,4.08h180l.09,0h-.1c2.44-.82,4.86-2.28,7.33-2.36,10.88-.39,21.79-.73,32.66-.38,6,.2,12,1.78,18,2.74h-.16a.86.86,0,0,1,.17,0H615A22.17,22.17,0,0,0,625.84,0Z"/></g></g></svg>
